!!!OTL: Crucifer (Lift High the Cross)
!!!COL: LSB
**kern	**text	**text	**text	**text	**text	**text
*clefG2	*	*	*	*	*	*
*k	*	*	*	*	*	*
*M4/4	*	*	*	*	*	*
*C:	*	*	*	*	*	*
=1	=1 	=1	=1	=1	=1	=1
2g	Lift	Lift	Lift	Lift	Lift	Lift
4.cc	high	high	high	high	high	high
8g	the	the	the	the	the	the
=2	=2	=2	=2	=2	=2	=2
2.f	cross,	cross,	cross,	cross,	cross,	cross,
4g	the	the	the	the	the	the
=3	=3	=3	=3	=3	=3	=3
4.e	love	love	love	love	love	love
8f	of	of	of	of	of	of
4g	Christ	Christ	Christ	Christ	Christ	Christ
4a	pro-	pro-	pro-	pro-	pro-	pro-
=4	=4	=4	=4	=4	=4	=4
2.d;	claim	claim	claim	claim	claim	claim
4d	Till	Till	Till	Till	Till	Till
=5	=5	=5	=5	=5	=5	=5
4e	all	all	all	all	all	all
4g	the	the	the	the	the	the
2cc[	world	world	world	world	world	world
=6	=6	=6	=6	=6	=6	=6
4cc]	.	.	.	.	.	.
4a	a-	a-	a-	a-	a-	a-
2g[	dore	dore	dore	dore	dore	dore
=7	=7	=7	=7	=7	=7	=7
4g]	.	.	.	.	.	.
4a	His	His	His	His	His	His
8fL	sa-	sa-	sa-	sa-	sa-	sa-
8eJ	.	.	.	.	.	.
4d	cred	cred	cred	cred	cred	cred
=8	=8	=8	=8	=8	=8	=8
1c;	name.	name.	name.	name.	name.	name.
==	=||	=||	=||	=||	=||	=||
=9	=9	=9	=9	=9	=9	=9
2g	1.Come,	2.Led	3.All	4.O	5.Let	6.So
4.f#	Chris-	on	new-	Lord,	ev'-	shall
8e	tians,	their	born	once	ry	our
=10	=10	=10	=10	=10	=10	=10
2f#	fol-	way	sol-	lift-	race	song
2d	low	by	diers	ed	and	of
=11	=11	=11	=11	=11	=11	=11
4.e	where	this	of	on	ev'-	tri-
8f#	our	tri-	the	the	ry	umph
4g	Cap-	um-	Cru-	glo-	lang-	ev-
4a	tain	phant	ci-	rious	uage	er
=12	=12	=12	=12	=12	=12	=12
2b;	trod,	sign,	fied	tree,	tell	be:
2g	Our	The	Bear	As	Of	Praise
=13	=13	=13	=13	=13	=13	=13
2cc	King	hosts	on	Thou	Him	to
4b	vic-	of	their	hast	who	the
4a	.	.	.	.	saves	.
=14	=14	=14	=14	=14	=14	=14
2dd	to-	God	brows	pro-	our	Cru-
2d	rious,	in	the	mised,	lives	cified
=15	=15	=15	=15	=15	=15	=15
4.e	Christ,	con-	seal	draw	from	for
8g	the	qu'ring	of	us	.	.
4g	son	ranks	Him	all	death	vic-
4f#	of	com-	who	to	and	to
=16	=16	=16	=16	=16	=16	=16
1g;	God.	bine.	died.	Thee.	hell.	ry!
=||	=	=	=	=	=	=
*-	*-	*-	*-	*-	*-	*-
